www/assets/icons/kayaking.svg

<svg xmlns="http://www.w3.org/2000/svg" width="24" height="24" viewBox="0 0 24 24" fill='currentColor'><path d="M21 22.5c-1.03 0-2.06-.25-3-.75-1.89 1-4.11 1-6 0-1.89 1-4.11 1-6 0-.95.5-1.97.75-3 .75H2v-2h1c1.04 0 2.08-.35 3-1 1.83 1.3 4.17 1.3 6 0 1.83 1.3 4.17 1.3 6 0 .91.65 1.96 1 3 1h1v2zM12 5c-1.1 0-2 .9-2 2s.9 2 2 2 2-.9 2-2-.9-2-2-2m12 12s-1.52.71-3.93 1.37c-.82-.23-1.53-.75-2.07-1.37-.73.84-1.8 1.5-3 1.5s-2.27-.66-3-1.5c-.73.84-1.8 1.5-3 1.5s-2.27-.66-3-1.5c-.54.61-1.25 1.13-2.07 1.37C1.52 17.71 0 17 0 17s2.93-1.36 7.13-2.08l1.35-4.17c.31-.95 1.32-1.47 2.27-1.16.09.03.19.07.27.11l2.47 1.3 2.84-1.5 1.65-3.71-.51-1.32L18.8 1.5 22 2.93 20.67 5.9l-1.31.5-3.72 8.34C20.49 15.37 24 17 24 17m-8.98-4.54-1.52.8-1.75-.92-.71 2.17c.32 0 .64-.01.96-.01.71 0 1.4.03 2.07.08z"/></svg>

<svg width="24" height="24" viewBox="0 0 24 24" xmlns="http://www.w3.org/2000/svg" fill='currentColor'><path d="M21 22.5C19.97 22.5 18.94 22.25 18 21.75C16.11 22.75 13.89 22.75 12 21.75C10.11 22.75 7.89 22.75 6 21.75C5.05 22.25 4.03 22.5 3 22.5H2V20.5H3C4.04 20.5 5.08 20.15 6 19.5C7.83 20.8 10.17 20.8 12 19.5C13.83 20.8 16.17 20.8 18 19.5C18.91 20.15 19.96 20.5 21 20.5H22V22.5H21ZM12 5C10.9 5 10 5.9 10 7C10 8.1 10.9 9 12 9C13.1 9 14 8.1 14 7C14 5.9 13.1 5 12 5ZM24 17C24 17 22.48 17.71 20.07 18.37C19.25 18.14 18.54 17.62 18 17C17.27 17.84 16.2 18.5 15 18.5C13.8 18.5 12.73 17.84 12 17C11.27 17.84 10.2 18.5 9 18.5C7.8 18.5 6.73 17.84 6 17C5.46 17.61 4.75 18.13 3.93 18.37C1.52 17.71 0 17 0 17C0 17 2.93 15.64 7.13 14.92L8.48 10.75C8.79 9.8 9.8 9.28 10.75 9.59C10.84 9.62 10.94 9.66 11.02 9.7L13.49 11L16.33 9.5L17.98 5.79L17.47 4.47L18.8 1.5L22 2.93L20.67 5.9L19.36 6.4L15.64 14.74C20.49 15.37 24 17 24 17ZM15.02 12.46L13.5 13.26L11.75 12.34L11.04 14.51C11.36 14.51 11.68 14.5 12 14.5C12.71 14.5 13.4 14.53 14.07 14.58L15.02 12.46Z"/></svg>
